app/assets/images/icons/active/outdoor-space.svg

<?xml version="1.0" encoding="UTF-8" standalone="no"?>
<svg width="32px" height="232px" viewBox="0 0 32 232" version="1.1" xmlns="http://www.w3.org/2000/svg" xmlns:xlink="http://www.w3.org/1999/xlink" xmlns:sketch="http://www.bohemiancoding.com/sketch/ns">
    <title>outdoor-space</title>
    <description>Created with Sketch (http://www.bohemiancoding.com/sketch)</description>
    <defs></defs>
    <g id="Hotel-facilities" stroke="none" stroke-width="1" fill="none" fill-rule="evenodd" sketch:type="MSPage">
        <path d="M28.5945208,135.845 L24.7550896,135.845 C23.9880076,135.85 23.3636853,136.488 23.3636853,137.268 C23.3636853,138.016 23.9206492,138.624 24.6646081,138.692 C24.7299558,138.708 24.7983196,138.71 24.8656781,138.698 L24.9259991,138.698 L24.9259991,139.608 L21.2232954,139.608 L19.5524039,133.54 L22.5734803,133.54 C22.6056515,133.54 22.6408387,133.535 22.6699939,133.529 C23.586873,133.474 24.3117303,132.705 24.3117303,131.766 C24.3117303,130.795 23.5285627,130 22.5302503,130 L9.27672256,130 C8.31460271,130 7.52942444,130.795 7.52942444,131.766 C7.52942444,132.693 8.24322286,133.461 9.14301102,133.526 C9.17819827,133.533 9.21338552,133.54 9.25460486,133.54 L12.5089225,133.54 L10.8058598,139.608 L7.07902768,139.608 L7.07902768,138.698 L7.15342358,138.698 C7.18358407,138.702 7.21072852,138.705 7.24189437,138.705 C8.02204589,138.705 8.65441097,138.063 8.65441097,137.268 C8.65441097,136.484 8.02204589,135.845 7.24189437,135.845 L3.40950056,135.845 C2.63437579,135.845 2,136.484 2,137.268 C2,138.063 2.63437579,138.705 3.41151126,138.705 C3.4406664,138.705 3.47183225,138.702 3.49998205,138.698 L3.58242074,138.698 L3.58242074,140.851 C3.58242074,142.38 4.21880722,143.155 5.4634304,143.155 L9.55721518,143.155 L8.26332986,146.851 C7.97881584,147.677 8.4091056,148.6 9.22343901,148.901 C10.0267136,149.197 10.9727478,148.75 11.2713368,147.932 C11.2773689,147.912 11.2854117,147.892 11.2894331,147.871 L12.9522818,143.155 L19.0457075,143.155 L20.7618398,147.934 C20.9910596,148.572 21.5942695,149 22.2598111,149 C22.4458009,149 22.6368173,148.969 22.8097375,148.901 C23.6150228,148.604 24.0382751,147.711 23.7799002,146.885 C23.7758788,146.862 23.767836,146.838 23.7597932,146.815 L22.4458009,143.155 L26.5476285,143.155 C27.7067969,143.155 28.4296435,142.512 28.4296435,141.469 L28.4296435,138.698 L28.4980073,138.698 C28.5593336,138.71 28.623676,138.71 28.6850023,138.696 C29.4168971,138.649 30,138.026 30,137.268 C30,136.488 29.3696456,135.85 28.5945208,135.845 C28.5945208,135.845 29.3696456,135.85 28.5945208,135.845 L28.5945208,135.845 L28.5945208,135.845 Z M14.1576963,139.608 L15.8346199,133.54 L16.1553266,133.54 L17.7809773,139.608 L14.1576963,139.608 L14.1576963,139.608 Z M14.1576963,139.608" id="outdoor-space--white" fill="#206FAC" sketch:type="MSShapeGroup"></path>
        <path d="M28.5945208,95.845 L24.7550896,95.845 C23.9880076,95.85 23.3636853,96.488 23.3636853,97.268 C23.3636853,98.016 23.9206492,98.624 24.6646081,98.692 C24.7299558,98.708 24.7983196,98.71 24.8656781,98.698 L24.9259991,98.698 L24.9259991,99.608 L21.2232954,99.608 L19.5524039,93.54 L22.5734803,93.54 C22.6056515,93.54 22.6408387,93.535 22.6699939,93.529 C23.586873,93.474 24.3117303,92.705 24.3117303,91.766 C24.3117303,90.795 23.5285627,90 22.5302503,90 L9.27672256,90 C8.31460271,90 7.52942444,90.795 7.52942444,91.766 C7.52942444,92.693 8.24322286,93.461 9.14301102,93.526 C9.17819827,93.533 9.21338552,93.54 9.25460486,93.54 L12.5089225,93.54 L10.8058598,99.608 L7.07902768,99.608 L7.07902768,98.698 L7.15342358,98.698 C7.18358407,98.702 7.21072852,98.705 7.24189437,98.705 C8.02204589,98.705 8.65441097,98.063 8.65441097,97.268 C8.65441097,96.484 8.02204589,95.845 7.24189437,95.845 L3.40950056,95.845 C2.63437579,95.845 2,96.484 2,97.268 C2,98.063 2.63437579,98.705 3.41151126,98.705 C3.4406664,98.705 3.47183225,98.702 3.49998205,98.698 L3.58242074,98.698 L3.58242074,100.851 C3.58242074,102.38 4.21880722,103.155 5.4634304,103.155 L9.55721518,103.155 L8.26332986,106.851 C7.97881584,107.677 8.4091056,108.6 9.22343901,108.901 C10.0267136,109.197 10.9727478,108.75 11.2713368,107.932 C11.2773689,107.912 11.2854117,107.892 11.2894331,107.871 L12.9522818,103.155 L19.0457075,103.155 L20.7618398,107.934 C20.9910596,108.572 21.5942695,109 22.2598111,109 C22.4458009,109 22.6368173,108.969 22.8097375,108.901 C23.6150228,108.604 24.0382751,107.711 23.7799002,106.885 C23.7758788,106.862 23.767836,106.838 23.7597932,106.815 L22.4458009,103.155 L26.5476285,103.155 C27.7067969,103.155 28.4296435,102.512 28.4296435,101.469 L28.4296435,98.698 L28.4980073,98.698 C28.5593336,98.71 28.623676,98.71 28.6850023,98.696 C29.4168971,98.649 30,98.026 30,97.268 C30,96.488 29.3696456,95.85 28.5945208,95.845 C28.5945208,95.845 29.3696456,95.85 28.5945208,95.845 L28.5945208,95.845 L28.5945208,95.845 Z M14.1576963,99.608 L15.8346199,93.54 L16.1553266,93.54 L17.7809773,99.608 L14.1576963,99.608 L14.1576963,99.608 Z M14.1576963,99.608" id="outdoor-space--white" fill="#FFFFFF" sketch:type="MSShapeGroup"></path>
        <path d="M28.5945208,55.845 L24.7550896,55.845 C23.9880076,55.85 23.3636853,56.488 23.3636853,57.268 C23.3636853,58.016 23.9206492,58.624 24.6646081,58.692 C24.7299558,58.708 24.7983196,58.71 24.8656781,58.698 L24.9259991,58.698 L24.9259991,59.608 L21.2232954,59.608 L19.5524039,53.54 L22.5734803,53.54 C22.6056515,53.54 22.6408387,53.535 22.6699939,53.529 C23.586873,53.474 24.3117303,52.705 24.3117303,51.766 C24.3117303,50.795 23.5285627,50 22.5302503,50 L9.27672256,50 C8.31460271,50 7.52942444,50.795 7.52942444,51.766 C7.52942444,52.693 8.24322286,53.461 9.14301102,53.526 C9.17819827,53.533 9.21338552,53.54 9.25460486,53.54 L12.5089225,53.54 L10.8058598,59.608 L7.07902768,59.608 L7.07902768,58.698 L7.15342358,58.698 C7.18358407,58.702 7.21072852,58.705 7.24189437,58.705 C8.02204589,58.705 8.65441097,58.063 8.65441097,57.268 C8.65441097,56.484 8.02204589,55.845 7.24189437,55.845 L3.40950056,55.845 C2.63437579,55.845 2,56.484 2,57.268 C2,58.063 2.63437579,58.705 3.41151126,58.705 C3.4406664,58.705 3.47183225,58.702 3.49998205,58.698 L3.58242074,58.698 L3.58242074,60.851 C3.58242074,62.38 4.21880722,63.155 5.4634304,63.155 L9.55721518,63.155 L8.26332986,66.851 C7.97881584,67.677 8.4091056,68.6 9.22343901,68.901 C10.0267136,69.197 10.9727478,68.75 11.2713368,67.932 C11.2773689,67.912 11.2854117,67.892 11.2894331,67.871 L12.9522818,63.155 L19.0457075,63.155 L20.7618398,67.934 C20.9910596,68.572 21.5942695,69 22.2598111,69 C22.4458009,69 22.6368173,68.969 22.8097375,68.901 C23.6150228,68.604 24.0382751,67.711 23.7799002,66.885 C23.7758788,66.862 23.767836,66.838 23.7597932,66.815 L22.4458009,63.155 L26.5476285,63.155 C27.7067969,63.155 28.4296435,62.512 28.4296435,61.469 L28.4296435,58.698 L28.4980073,58.698 C28.5593336,58.71 28.623676,58.71 28.6850023,58.696 C29.4168971,58.649 30,58.026 30,57.268 C30,56.488 29.3696456,55.85 28.5945208,55.845 C28.5945208,55.845 29.3696456,55.85 28.5945208,55.845 L28.5945208,55.845 L28.5945208,55.845 Z M14.1576963,59.608 L15.8346199,53.54 L16.1553266,53.54 L17.7809773,59.608 L14.1576963,59.608 L14.1576963,59.608 Z M14.1576963,59.608" id="outdoor-space--light-grey" fill="#67737B" sketch:type="MSShapeGroup"></path>
        <path d="M28.5945208,15.845 L24.7550896,15.845 C23.9880076,15.85 23.3636853,16.488 23.3636853,17.268 C23.3636853,18.016 23.9206492,18.624 24.6646081,18.692 C24.7299558,18.708 24.7983196,18.71 24.8656781,18.698 L24.9259991,18.698 L24.9259991,19.608 L21.2232954,19.608 L19.5524039,13.54 L22.5734803,13.54 C22.6056515,13.54 22.6408387,13.535 22.6699939,13.529 C23.586873,13.474 24.3117303,12.705 24.3117303,11.766 C24.3117303,10.795 23.5285627,10 22.5302503,10 L9.27672256,10 C8.31460271,10 7.52942444,10.795 7.52942444,11.766 C7.52942444,12.693 8.24322286,13.461 9.14301102,13.526 C9.17819827,13.533 9.21338552,13.54 9.25460486,13.54 L12.5089225,13.54 L10.8058598,19.608 L7.07902768,19.608 L7.07902768,18.698 L7.15342358,18.698 C7.18358407,18.702 7.21072852,18.705 7.24189437,18.705 C8.02204589,18.705 8.65441097,18.063 8.65441097,17.268 C8.65441097,16.484 8.02204589,15.845 7.24189437,15.845 L3.40950056,15.845 C2.63437579,15.845 2,16.484 2,17.268 C2,18.063 2.63437579,18.705 3.41151126,18.705 C3.4406664,18.705 3.47183225,18.702 3.49998205,18.698 L3.58242074,18.698 L3.58242074,20.851 C3.58242074,22.38 4.21880722,23.155 5.4634304,23.155 L9.55721518,23.155 L8.26332986,26.851 C7.97881584,27.677 8.4091056,28.6 9.22343901,28.901 C10.0267136,29.197 10.9727478,28.75 11.2713368,27.932 C11.2773689,27.912 11.2854117,27.892 11.2894331,27.871 L12.9522818,23.155 L19.0457075,23.155 L20.7618398,27.934 C20.9910596,28.572 21.5942695,29 22.2598111,29 C22.4458009,29 22.6368173,28.969 22.8097375,28.901 C23.6150228,28.604 24.0382751,27.711 23.7799002,26.885 C23.7758788,26.862 23.767836,26.838 23.7597932,26.815 L22.4458009,23.155 L26.5476285,23.155 C27.7067969,23.155 28.4296435,22.512 28.4296435,21.469 L28.4296435,18.698 L28.4980073,18.698 C28.5593336,18.71 28.623676,18.71 28.6850023,18.696 C29.4168971,18.649 30,18.026 30,17.268 C30,16.488 29.3696456,15.85 28.5945208,15.845 C28.5945208,15.845 29.3696456,15.85 28.5945208,15.845 L28.5945208,15.845 L28.5945208,15.845 Z M14.1576963,19.608 L15.8346199,13.54 L16.1553266,13.54 L17.7809773,19.608 L14.1576963,19.608 L14.1576963,19.608 Z M14.1576963,19.608" id="outdoor-space--dark-grey" fill="#3A434E" sketch:type="MSShapeGroup"></path>
    </g>
</svg>

<svg width="32" height="232" viewBox="0 0 32 232" xmlns="http://www.w3.org/2000/svg" xmlns:sketch="http://www.bohemiancoding.com/sketch/ns"><title>outdoor-space</title><g sketch:type="MSPage" fill="none"><path d="M28.595 135.845h-3.839c-.767.005-1.391.643-1.391 1.423 0 .748.557 1.356 1.301 1.424l.201.006h.06v.91h-3.703l-1.671-6.068h3.021l.097-.011c.917-.055 1.642-.824 1.642-1.763 0-.971-.783-1.766-1.781-1.766h-13.254c-.962 0-1.747.795-1.747 1.766 0 .927.714 1.695 1.614 1.76l.112.014h3.254l-1.703 6.068h-3.727v-.91h.074l.088.007c.78 0 1.413-.642 1.413-1.437 0-.784-.632-1.423-1.413-1.423h-3.832c-.775 0-1.41.639-1.41 1.423 0 .795.634 1.437 1.412 1.437l.088-.007h.082v2.153c0 1.529.636 2.304 1.881 2.304h4.094l-1.294 3.696c-.285.826.146 1.749.96 2.05.803.296 1.749-.151 2.048-.969l.018-.061 1.663-4.716h6.093l1.716 4.779c.229.638.832 1.066 1.498 1.066.186 0 .377-.031.55-.099.805-.297 1.229-1.19.97-2.016l-.02-.07-1.314-3.66h4.102c1.159 0 1.882-.643 1.882-1.686v-2.771h.068l.187-.002c.732-.047 1.315-.67 1.315-1.428 0-.78-.63-1.418-1.405-1.423zm-14.437 3.763l1.677-6.068h.321l1.626 6.068h-3.623zm0 0" id="outdoor-space--white" fill="#206FAC" sketch:type="MSShapeGroup"/><path d="M28.595 95.845h-3.839c-.767.005-1.391.643-1.391 1.423 0 .748.557 1.356 1.301 1.424l.201.006h.06v.91h-3.703l-1.671-6.068h3.021l.097-.011c.917-.055 1.642-.824 1.642-1.763 0-.971-.783-1.766-1.781-1.766h-13.254c-.962 0-1.747.795-1.747 1.766 0 .927.714 1.695 1.614 1.76l.112.014h3.254l-1.703 6.068h-3.727v-.91h.074l.088.007c.78 0 1.413-.642 1.413-1.437 0-.784-.632-1.423-1.413-1.423h-3.832c-.775 0-1.41.639-1.41 1.423 0 .795.634 1.437 1.412 1.437l.088-.007h.082v2.153c0 1.529.636 2.304 1.881 2.304h4.094l-1.294 3.696c-.285.826.146 1.749.96 2.05.803.296 1.749-.151 2.048-.969l.018-.061 1.663-4.716h6.093l1.716 4.779c.229.638.832 1.066 1.498 1.066.186 0 .377-.031.55-.099.805-.297 1.229-1.19.97-2.016l-.02-.07-1.314-3.66h4.102c1.159 0 1.882-.643 1.882-1.686v-2.771h.068l.187-.002c.732-.047 1.315-.67 1.315-1.428 0-.78-.63-1.418-1.405-1.423zm-14.437 3.763l1.677-6.068h.321l1.626 6.068h-3.623zm0 0" fill="#fff" sketch:type="MSShapeGroup"/><path d="M28.595 55.845h-3.839c-.767.005-1.391.643-1.391 1.423 0 .748.557 1.356 1.301 1.424l.201.006h.06v.91h-3.703l-1.671-6.068h3.021l.097-.011c.917-.055 1.642-.824 1.642-1.763 0-.971-.783-1.766-1.781-1.766h-13.254c-.962 0-1.747.795-1.747 1.766 0 .927.714 1.695 1.614 1.76l.112.014h3.254l-1.703 6.068h-3.727v-.91h.074l.088.007c.78 0 1.413-.642 1.413-1.437 0-.784-.632-1.423-1.413-1.423h-3.832c-.775 0-1.41.639-1.41 1.423 0 .795.634 1.437 1.412 1.437l.088-.007h.082v2.153c0 1.529.636 2.304 1.881 2.304h4.094l-1.294 3.696c-.285.826.146 1.749.96 2.05.803.296 1.749-.151 2.048-.969l.018-.061 1.663-4.716h6.093l1.716 4.779c.229.638.832 1.066 1.498 1.066.186 0 .377-.031.55-.099.805-.297 1.229-1.19.97-2.016l-.02-.07-1.314-3.66h4.102c1.159 0 1.882-.643 1.882-1.686v-2.771h.068l.187-.002c.732-.047 1.315-.67 1.315-1.428 0-.78-.63-1.418-1.405-1.423zm-14.437 3.763l1.677-6.068h.321l1.626 6.068h-3.623zm0 0" fill="#67737B" sketch:type="MSShapeGroup"/><path d="M28.595 15.845h-3.839c-.767.005-1.391.643-1.391 1.423 0 .748.557 1.356 1.301 1.424l.201.006h.06v.91h-3.703l-1.671-6.068h3.021l.097-.011c.917-.055 1.642-.824 1.642-1.763 0-.971-.783-1.766-1.781-1.766h-13.254c-.962 0-1.747.795-1.747 1.766 0 .927.714 1.695 1.614 1.76l.112.014h3.254l-1.703 6.068h-3.727v-.91h.074l.088.007c.78 0 1.413-.642 1.413-1.437 0-.784-.632-1.423-1.413-1.423h-3.832c-.775 0-1.41.639-1.41 1.423 0 .795.634 1.437 1.412 1.437l.088-.007h.082v2.153c0 1.529.636 2.304 1.881 2.304h4.094l-1.294 3.696c-.285.826.146 1.749.96 2.05.803.296 1.749-.151 2.048-.969l.018-.061 1.663-4.716h6.093l1.716 4.779c.229.638.832 1.066 1.498 1.066.186 0 .377-.031.55-.099.805-.297 1.229-1.19.97-2.016l-.02-.07-1.314-3.66h4.102c1.159 0 1.882-.643 1.882-1.686v-2.771h.068l.187-.002c.732-.047 1.315-.67 1.315-1.428 0-.78-.63-1.418-1.405-1.423zm-14.437 3.763l1.677-6.068h.321l1.626 6.068h-3.623zm0 0" fill="#3A434E" sketch:type="MSShapeGroup"/></g></svg>
